X:1
T:Dvanag An T-seoladair
C:Joe Buchanan's Scottish Tome - Page 527.2
L:1/4
M:3/4
I:linebreak $
K:F
V:1 treble 
V:1
 C | F2 F | F2 c | d2 d | c2 c | B A G | A2 c | D2 D | C2 D | F2 G | F2 D | C2 D | F2 A | c2 c | %14
 d c B | A F2 |$ F3 |] %17
